common/src/main/resources/icons/linux/restoreHover_dark.svg

<svg xmlns="http://www.w3.org/2000/svg" width="16" height="16" fill="#b0bec5" data-big="true" viewBox="0 0 24 24"><path d="M4 8h4V4h12v12h-4v4H4zm12 0v6h2V6h-8v2zM6 12v6h8v-6z"/><circle cx="12" cy="12" r="12" data-tint="true" opacity=".5"/></svg>

<!--
  - The MIT License (MIT)
  -
  - Copyright (c) 2015-2024 Elior "Mallowigi" Boukhobza
  -
  - Permission is hereby granted, free of charge, to any person obtaining a copy
  - of this software and associated documentation files (the "Software"), to deal
  - in the Software without restriction, including without limitation the rights
  - to use, copy, modify, merge, publish, distribute, sublicense, and/or sell
  - copies of the Software, and to permit persons to whom the Software is
  - furnished to do so, subject to the following conditions:
  -
  - The above copyright notice and this permission notice shall be included in all
  - copies or substantial portions of the Software.
  -
  - THE SOFTWARE IS PROVIDED "AS IS", WITHOUT WARRANTY OF ANY KIND, EXPRESS OR
  - IMPLIED, INCLUDING BUT NOT LIMITED TO THE WARRANTIES OF MERCHANTABILITY,
  - FITNESS FOR A PARTICULAR PURPOSE AND NONINFRINGEMENT. IN NO EVENT SHALL THE
  - AUTHORS OR COPYRIGHT HOLDERS BE LIABLE FOR ANY CLAIM, DAMAGES OR OTHER
  - LIABILITY, WHETHER IN AN ACTION OF CONTRACT, TORT OR OTHERWISE, ARISING FROM,
  - OUT OF OR IN CONNECTION WITH THE SOFTWARE OR THE USE OR OTHER DEALINGS IN THE
  - SOFTWARE.
  -->


<svg data-big="true" xmlns="http://www.w3.org/2000/svg" version="1.1" width="16px" height="16px" fill="#b0bec5"
     viewBox="0 0 24 24">

  <path d="M4,8H8V4H20V16H16V20H4V8M16,8V14H18V6H10V8H16M6,12V18H14V12H6Z"/>
  <circle r="12" cx="12" cy="12" data-tint="true" opacity="0.5"/>
</svg>
